src/resources/svg/tokens/uniswap.svg

<svg fill="none" viewBox="0 0 42 44" xmlns="http://www.w3.org/2000/svg">
    <rect y="2" width="40" height="40" rx="20" fill="#FF4339"/>
    <path d="m19.414 21.17h-0.1136c-1.4389 0-2.6128 1.2118-2.6128 2.6886v2.9158l2.6885-2.007 2.6886 2.007v-2.9158c-0.0379-1.4768-1.2117-2.6886-2.6507-2.6886z" fill="#fff"/>
    <path d="m8.053 11.325v21.925l6.7782-5.0742v-5.7937l-1.2496-0.9845 5.7937-4.3548 5.7558 4.3548-1.2496 0.9845v5.7937l6.8161 5.0742v-21.925h-22.645z" fill="#fff"/>
    <rect x="23" y="1" width="18" height="18" rx="9" fill="#FF4339" stroke="#fff" stroke-width="2"/>
    <path d="m30.111 4.8525c-0.1409-0.02351-0.1469-0.02626-0.0806-0.03723 0.1271-0.02101 0.4271 0.00763 0.6339 0.06051 0.4826 0.1234 0.9218 0.43953 1.3906 1.001l0.1246 0.14916 0.1781-0.03081c0.7506-0.12975 1.5142-0.02663 2.1529 0.29072 0.1757 0.08731 0.4527 0.26111 0.4873 0.30577 0.0111 0.01423 0.0313 0.10585 0.045 0.20362 0.0474 0.33824 0.0237 0.59751-0.0725 0.79116-0.0523 0.10537-0.0552 0.13877-0.02 0.22895 0.0281 0.07196 0.1064 0.12523 0.1839 0.12511 0.1587-2.3e-4 0.3295-0.2762 0.4087-0.6602l0.0315-0.15252 0.0622 0.07589c0.3417 0.41635 0.61 0.98416 0.6561 1.3883l0.012 0.10539-0.0574-0.0958c-0.0988-0.16485-0.1982-0.27707-0.3253-0.36758-0.2293-0.16314-0.4716-0.21866-1.1135-0.25505-0.5797-0.03285-0.9078-0.08611-1.2332-0.20023-0.5535-0.19412-0.8325-0.45266-1.4901-1.3806-0.292-0.41216-0.4725-0.64019-0.6521-0.82383-0.408-0.41728-0.8089-0.63612-1.3221-0.72174z" fill="#fff"/>
    <path d="m35.128 5.7728c0.0146-0.27618 0.0494-0.45835 0.1194-0.62472 0.0277-0.06584 0.0537-0.11974 0.0577-0.11974s-0.0081 0.0486-0.0268 0.108c-0.0509 0.16146-0.0593 0.38229-0.0242 0.63923 0.0445 0.326 0.0698 0.37304 0.3902 0.72519 0.1502 0.16518 0.325 0.3735 0.3883 0.46294l0.1152 0.16263-0.1152-0.11622c-0.1409-0.14213-0.4648-0.41932-0.5364-0.45894-0.048-0.02657-0.0551-0.02611-0.0847 0.00558-0.0273 0.02919-0.0331 0.07307-0.0368 0.28049-0.0059 0.32329-0.0469 0.53079-0.1457 0.73827-0.0535 0.11221-0.062 0.08826-0.0136-0.0384 0.0361-0.09457 0.0398-0.13614 0.0396-0.4491-6e-4 -0.62881-0.07-0.77998-0.477-1.0389-0.103-0.0656-0.273-0.16021-0.3775-0.21026-0.1045-0.05004-0.1875-0.09363-0.1845-0.09689 0.0115-0.01233 0.4084 0.11227 0.5682 0.17838 0.2376 0.09832 0.2768 0.11107 0.3057 0.09921 0.0194-0.00796 0.0287-0.06856 0.0381-0.24671z" fill="#fff"/>
    <path d="m30.385 6.8485c-0.286-0.42355-0.463-1.073-0.4247-1.5584l0.0119-0.15023 0.0651 0.01278c0.1222 0.02398 0.3331 0.10838 0.4318 0.17287 0.2708 0.17696 0.3881 0.40994 0.5074 1.0082 0.035 0.17523 0.0808 0.37353 0.1019 0.44067 0.034 0.10806 0.1623 0.36046 0.2667 0.52438 0.0752 0.11807 0.0252 0.17401-0.1409 0.15788-0.2538-0.02463-0.5975-0.27978-0.8192-0.60812z" fill="#fff"/>
    <path d="m34.781 10.001c-1.3367-0.57887-1.8074-1.0814-1.8074-1.9292 0-0.12477 4e-3 -0.22685 0.0088-0.22685 0.0049 0 0.0566 0.04117 0.115 0.09151 0.271 0.23384 0.5745 0.33372 1.4148 0.46557 0.4944 0.0776 0.7727 0.14028 1.0294 0.23183 0.8158 0.29104 1.3205 0.88165 1.4409 1.6861 0.035 0.2337 0.0145 0.6721-0.0423 0.9031-0.0447 0.1825-0.1813 0.5114-0.2176 0.524-0.01 0.0035-0.0199-0.0379-0.0225-0.0943-0.0137-0.302-0.1556-0.5961-0.3939-0.8164-0.271-0.2505-0.635-0.4499-1.5252-0.8354z" fill="#fff"/>
    <path d="m33.843 10.241c-0.0167-0.1072-0.0458-0.2441-0.0645-0.30422l-0.0341-0.1093 0.0633 0.07648c0.0877 0.10584 0.157 0.24124 0.2157 0.42164 0.0448 0.1377 0.0498 0.1786 0.0495 0.4024-3e-4 0.2196-0.0059 0.2657-0.0473 0.3896-0.0653 0.1954-0.1462 0.3339-0.2821 0.4827-0.2442 0.2673-0.5581 0.4153-1.0111 0.4766-0.0787 0.0107-0.3082 0.0287-0.51 0.0399-0.5085 0.0285-0.8431 0.0873-1.1438 0.2009-0.0433 0.0163-0.0819 0.0262-0.0858 0.022-0.0122-0.013 0.1926-0.1443 0.3617-0.2319 0.2384-0.1236 0.4758-0.191 1.0076-0.2863 0.2627-0.0471 0.534-0.1042 0.6029-0.1269 0.6506-0.2145 0.9851-0.7682 0.878-1.4536z" fill="#fff"/>
    <path d="m34.456 11.412c-0.1776-0.4106-0.2184-0.8071-0.1211-1.1769 0.0104-0.0395 0.0271-0.0718 0.0372-0.0718s0.052 0.0244 0.0931 0.0541c0.0819 0.0593 0.246 0.1591 0.6832 0.4155 0.5457 0.32 0.8568 0.5678 1.0684 0.8509 0.1853 0.2479 0.2999 0.5303 0.3551 0.8747 0.0313 0.195 0.0129 0.6643-0.0336 0.8607-0.1467 0.6193-0.4877 1.1057-0.974 1.3895-0.0712 0.0416-0.1352 0.0758-0.1421 0.0759-7e-3 2e-4 0.019-0.0708 0.0577-0.1578 0.1635-0.3678 0.1822-0.7256 0.0585-1.1239-0.0757-0.2439-0.2302-0.5415-0.5419-1.0444-0.3625-0.5847-0.4514-0.7403-0.5405-0.9465z" fill="#fff"/>
    <path d="m29.435 13.628c0.496-0.4505 1.1132-0.7706 1.6754-0.8688 0.2423-0.0424 0.6459-0.0256 0.8702 0.0362 0.3596 0.099 0.6813 0.3208 0.8486 0.5849 0.1635 0.2582 0.2337 0.4832 0.3067 0.9838 0.0288 0.1975 0.0602 0.3958 0.0697 0.4407 0.0548 0.2595 0.1615 0.4668 0.2938 0.571 0.2101 0.1654 0.5718 0.1756 0.9276 0.0263 0.0604-0.0254 0.1129-0.0429 0.1165-0.0389 0.013 0.0138-0.1662 0.1428-0.2926 0.2107-0.1701 0.0914-0.3054 0.1268-0.4851 0.1268-0.3259 0-0.5965-0.1783-0.8223-0.542-0.0444-0.0716-0.1443-0.2859-0.2219-0.4763-0.2384-0.5849-0.3561-0.763-0.6329-0.958-0.2408-0.1696-0.5515-0.2001-0.7852-0.0768-0.3069 0.1619-0.3926 0.5839-0.1727 0.8513 0.0874 0.1063 0.2503 0.1979 0.3836 0.2157 0.2492 0.0334 0.4635-0.1706 0.4635-0.4413 0-0.1758-0.0628-0.2761-0.221-0.3529-0.2159-0.1048-0.4481 0.0178-0.447 0.236 5e-4 0.0931 0.0382 0.1514 0.1249 0.1937 0.0557 0.0271 0.0569 0.0292 0.0116 0.019-0.1982-0.0441-0.2446-0.3011-0.0853-0.4717 0.1913-0.2047 0.5868-0.1144 0.7227 0.1652 0.057 0.1174 0.0637 0.3512 0.0139 0.4924-0.1113 0.316-0.436 0.4822-0.7653 0.3918-0.2243-0.0617-0.3156-0.1283-0.5859-0.4278-0.4698-0.5206-0.6521-0.6214-1.3294-0.7351l-0.1297-0.0218 0.1476-0.1341z" fill="#fff"/>
    <path d="m27.231 4.3113c1.5688 2.0481 2.6493 2.8931 2.7694 3.0717 0.0992 0.14742 0.0618 0.27994-0.108 0.38381-0.0944 0.05775-0.2886 0.11626-0.3859 0.11626-0.1099 0-0.1477-0.04563-0.1477-0.04563-0.0637-0.06505-0.0996-0.05368-0.4271-0.67884-0.4545-0.75872-0.835-1.3881-0.8453-1.3986-0.024-0.02437-0.0236-0.02355 0.799 1.5597 0.1329 0.32998 0.0264 0.45111 0.0264 0.4981 0 0.09561-0.0242 0.14586-0.1339 0.27742-0.1828 0.21933-0.2645 0.46578-0.3234 0.97583-0.0662 0.57176-0.2521 0.97564-0.7674 1.6668-0.3016 0.4047-0.3509 0.4788-0.4271 0.6419-0.0958 0.2054-0.1222 0.3204-0.1329 0.5797-0.0113 0.2743 0.0107 0.4514 0.0886 0.7136 0.0682 0.2295 0.1394 0.381 0.3213 0.6841 0.157 0.2616 0.2474 0.456 0.2474 0.5321 0 0.0605 0.0108 0.0606 0.2541 0.0014 0.5822-0.1414 1.055-0.3901 1.3209-0.695 0.1646-0.1887 0.2032-0.2929 0.2045-0.5513 8e-4 -0.1692-0.0047-0.2046-0.0472-0.3019-0.0692-0.1584-0.1952-0.29-0.4728-0.4941-0.3637-0.2675-0.519-0.4828-0.5619-0.7789-0.0352-0.243 0.0056-0.4144 0.2068-0.868 0.2083-0.46957 0.2599-0.66966 0.2948-1.1429 0.0225-0.30577 0.0538-0.42636 0.1354-0.52315 0.0852-0.10094 0.1619-0.13512 0.3727-0.1661 0.3437-0.0505 0.5625-0.14614 0.7424-0.32444 0.1561-0.15468 0.2214-0.30372 0.2314-0.52808l0.0076-0.17006-0.0872-0.10936c-0.3158-0.39607-3.3663-3.2373-3.3858-3.2373-0.0041 0 0.0998 0.14011 0.2309 0.31134zm0.7307 7.9584c0.0714-0.136 0.0335-0.3108-0.086-0.3963-0.1128-0.0807-0.2881-0.0426-0.2881 0.0625 0 0.0321 0.0165 0.0555 0.0537 0.0761 0.0626 0.0346 0.0671 0.0736 0.0179 0.1532-0.0499 0.0807-0.0459 0.1516 0.0113 0.1998 0.0923 0.0777 0.2228 0.035 0.2912-0.0953z" clip-rule="evenodd" fill="#fff" fill-rule="evenodd"/>
    <path d="m30.69 8.4584c-0.1614 0.05335-0.3182 0.23746-0.3668 0.43051-0.0296 0.11777-0.0128 0.32435 0.0316 0.38815 0.0717 0.10304 0.141 0.13019 0.3287 0.12877 0.3674-0.00276 0.6868-0.17242 0.7239-0.38452 0.0305-0.17387-0.1098-0.41482-0.303-0.5206-0.0998-0.05457-0.3118-0.07621-0.4144-0.04231zm0.4295 0.36162c0.0567-0.08669 0.0319-0.18037-0.0645-0.24373-0.1835-0.12065-0.461-0.02081-0.461 0.16585 0 0.09291 0.1447 0.19428 0.2774 0.19428 0.0883 0 0.2091-0.05669 0.2481-0.1164z" clip-rule="evenodd" fill="#fff" fill-rule="evenodd"/>
    <path d="m32 43c4.9856 0 9-4.0144 9-9s-4.0144-9-9-9-9 4.0144-9 9 4.0144 9 9 9z" fill="#FF4339" stroke="#fff" stroke-width="2"/>
    <path d="m34.2 35.267c0-1.1666-0.7-1.5666-2.1-1.7332-1-0.1334-1.2-0.4-1.2-0.8668 0-0.4667 0.3334-0.7666 1-0.7666 0.6 0 0.9334 0.2 1.1 0.7 0.0334 0.1 0.1334 0.1666 0.2334 0.1666h0.5333c0.1333 0 0.2333-0.1 0.2333-0.2332v-0.0334c-0.1333-0.7334-0.7333-1.3-1.5-1.3666v-0.8c0-0.1334-0.1-0.2334-0.2666-0.2667h-0.5c-0.1334 0-0.2334 0.1-0.2667 0.2667v0.7666c-1 0.1334-1.6333 0.8-1.6333 1.6334 0 1.1 0.6666 1.5332 2.0666 1.7 0.9334 0.1666 1.2334 0.3666 1.2334 0.9 0 0.5333-0.4667 0.9-1.1 0.9-0.8667 0-1.1667-0.3668-1.2667-0.8668-0.0333-0.1332-0.1333-0.2-0.2333-0.2h-0.5667c-0.1333 0-0.2333 0.1-0.2333 0.2334v0.0334c0.1333 0.8332 0.6666 1.4332 1.7666 1.6v0.8c0 0.1332 0.1 0.2332 0.2667 0.2666h0.5c0.1333 0 0.2333-0.1 0.2667-0.2666v-0.8c1-0.1668 1.6666-0.8668 1.6666-1.7668z" fill="#fff"/>
    <path d="m30.3 38.766c-2.6-0.9332-3.9334-3.8332-2.9667-6.4 0.5-1.4 1.6-2.4666 2.9667-2.9666 0.1333-0.0666 0.2-0.1666 0.2-0.3334v-0.4666c0-0.1334-0.0667-0.2334-0.2-0.2666-0.0334 0-0.1 0-0.1334 0.0332-3.1666 1-4.9 4.3668-3.9 7.5334 0.6 1.8666 2.0334 3.3 3.9 3.9 0.1334 0.0666 0.2667 0 0.3-0.1334 0.0334-0.0332 0.0334-0.0666 0.0334-0.1332v-0.4668c0-0.1-0.1-0.2332-0.2-0.3zm3.5333-10.4c-0.1333-0.0666-0.2667 0-0.3 0.1334-0.0333 0.0334-0.0333 0.0666-0.0333 0.1334v0.4666c0 0.1334 0.1 0.2666 0.2 0.3334 2.6 0.9332 3.9333 3.8332 2.9666 6.4-0.5 1.4-1.6 2.4666-2.9666 2.9666-0.1334 0.0666-0.2 0.1666-0.2 0.3334v0.4666c0 0.1334 0.0666 0.2334 0.2 0.2666 0.0333 0 0.1 0 0.1333-0.0332 3.1667-1 4.9-4.3668 3.9-7.5334-0.6-1.9-2.0667-3.3334-3.9-3.9334z" fill="#fff"/>
</svg>

<svg width="42" height="44" viewBox="0 0 42 44" xmlns="http://www.w3.org/2000/svg">
    <rect y="2" width="40" height="40" rx="20" fill="#FF4339"/>
    <path d="M19.4137 21.1704H19.3001C17.8612 21.1704 16.6873 22.3822 16.6873 23.859V26.7748L19.3758 24.7678L22.0644 26.7748V23.859C22.0265 22.3822 20.8527 21.1704 19.4137 21.1704Z"
          fill="white"/>
    <path d="M8.05298 11.325V33.2501L14.8312 28.1759V22.3822L13.5816 21.3977L19.3753 17.0429L25.1311 21.3977L23.8815 22.3822V28.1759L30.6976 33.2501V11.325H8.05298Z"
          fill="white"/>
    <rect x="23" y="1" width="18" height="18" rx="9" fill="#FF4339" stroke="white" stroke-width="2"/>
    <path d="M30.1107 4.85251C29.9698 4.829 29.9638 4.82625 30.0301 4.81528C30.1572 4.79427 30.4572 4.82291 30.664 4.87579C31.1466 4.99919 31.5858 5.31532 32.0546 5.87677L32.1792 6.02593L32.3573 5.99512C33.1079 5.86537 33.8715 5.96849 34.5102 6.28584C34.6859 6.37315 34.9629 6.54695 34.9975 6.59161C35.0086 6.60584 35.0288 6.69746 35.0425 6.79523C35.0899 7.13347 35.0662 7.39274 34.97 7.58639C34.9177 7.69176 34.9148 7.72516 34.95 7.81534C34.9781 7.8873 35.0564 7.94057 35.1339 7.94045C35.2926 7.94022 35.4634 7.66425 35.5426 7.28025L35.5741 7.12773L35.6363 7.20362C35.978 7.61997 36.2463 8.18778 36.2924 8.59194L36.3044 8.69733L36.247 8.60153C36.1482 8.43668 36.0488 8.32446 35.9217 8.23395C35.6924 8.07081 35.4501 8.01529 34.8082 7.9789C34.2285 7.94605 33.9004 7.89279 33.575 7.77867C33.0215 7.58455 32.7425 7.32601 32.0849 6.39808C31.7929 5.98592 31.6124 5.75789 31.4328 5.57425C31.0248 5.15697 30.6239 4.93813 30.1107 4.85251Z"
          fill="white"/>
    <path d="M35.1284 5.77278C35.143 5.4966 35.1778 5.31443 35.2478 5.14806C35.2755 5.08222 35.3015 5.02832 35.3055 5.02832C35.3095 5.02832 35.2974 5.07692 35.2787 5.13632C35.2278 5.29778 35.2194 5.51861 35.2545 5.77555C35.299 6.10155 35.3243 6.14859 35.6447 6.50074C35.7949 6.66592 35.9697 6.87424 36.033 6.96368L36.1482 7.12631L36.033 7.01009C35.8921 6.86796 35.5682 6.59077 35.4966 6.55115C35.4486 6.52458 35.4415 6.52504 35.4119 6.55673C35.3846 6.58592 35.3788 6.6298 35.3751 6.83722C35.3692 7.16051 35.3282 7.36801 35.2294 7.57549C35.1759 7.6877 35.1674 7.66375 35.2158 7.53709C35.2519 7.44252 35.2556 7.40095 35.2554 7.08799C35.2548 6.45918 35.1854 6.30801 34.7784 6.04905C34.6754 5.98345 34.5054 5.88884 34.4009 5.83879C34.2964 5.78875 34.2134 5.74516 34.2164 5.7419C34.2279 5.72957 34.6248 5.85417 34.7846 5.92028C35.0222 6.0186 35.0614 6.03135 35.0903 6.01949C35.1097 6.01153 35.119 5.95093 35.1284 5.77278Z"
          fill="white"/>
    <path d="M30.3847 6.84854C30.0987 6.42499 29.9217 5.77558 29.96 5.29012L29.9719 5.13989L30.037 5.15267C30.1592 5.17665 30.3701 5.26105 30.4688 5.32554C30.7396 5.5025 30.8569 5.73548 30.9762 6.33373C31.0112 6.50896 31.057 6.70726 31.0781 6.7744C31.1121 6.88246 31.2404 7.13486 31.3448 7.29878C31.42 7.41685 31.37 7.47279 31.2039 7.45666C30.9501 7.43203 30.6064 7.17688 30.3847 6.84854Z"
          fill="white"/>
    <path d="M34.7813 10.001C33.4446 9.42213 32.9739 8.91965 32.9739 8.07182C32.9739 7.94705 32.9779 7.84497 32.9827 7.84497C32.9876 7.84497 33.0393 7.88614 33.0977 7.93648C33.3687 8.17032 33.6722 8.2702 34.5125 8.40205C35.0069 8.47965 35.2852 8.54233 35.5419 8.63388C36.3577 8.92492 36.8624 9.51553 36.9828 10.32C37.0178 10.5537 36.9973 10.9921 36.9405 11.2231C36.8958 11.4056 36.7592 11.7345 36.7229 11.7471C36.7129 11.7506 36.703 11.7092 36.7004 11.6528C36.6867 11.3508 36.5448 11.0567 36.3065 10.8364C36.0355 10.5859 35.6715 10.3865 34.7813 10.001Z"
          fill="white"/>
    <path d="M33.8429 10.2414C33.8262 10.1342 33.7971 9.9973 33.7784 9.93718L33.7443 9.82788L33.8076 9.90436C33.8953 10.0102 33.9646 10.1456 34.0233 10.326C34.0681 10.4637 34.0731 10.5046 34.0728 10.7284C34.0725 10.948 34.0669 10.9941 34.0255 11.118C33.9602 11.3134 33.8793 11.4519 33.7434 11.6007C33.4992 11.868 33.1853 12.016 32.7323 12.0773C32.6536 12.088 32.4241 12.106 32.2223 12.1172C31.7138 12.1457 31.3792 12.2045 31.0785 12.3181C31.0352 12.3344 30.9966 12.3443 30.9927 12.3401C30.9805 12.3271 31.1853 12.1958 31.3544 12.1082C31.5928 11.9846 31.8302 11.9172 32.362 11.8219C32.6247 11.7748 32.896 11.7177 32.9649 11.695C33.6155 11.4805 33.95 10.9268 33.8429 10.2414Z"
          fill="white"/>
    <path d="M34.4558 11.4118C34.2782 11.0012 34.2374 10.6047 34.3347 10.2349C34.3451 10.1954 34.3618 10.1631 34.3719 10.1631C34.382 10.1631 34.4239 10.1875 34.465 10.2172C34.5469 10.2765 34.711 10.3763 35.1482 10.6327C35.6939 10.9527 36.005 11.2005 36.2166 11.4836C36.4019 11.7315 36.5165 12.0139 36.5717 12.3583C36.603 12.5533 36.5846 13.0226 36.5381 13.219C36.3914 13.8383 36.0504 14.3247 35.5641 14.6085C35.4929 14.6501 35.4289 14.6843 35.422 14.6844C35.415 14.6846 35.441 14.6136 35.4797 14.5266C35.6432 14.1588 35.6619 13.801 35.5382 13.4027C35.4625 13.1588 35.308 12.8612 34.9963 12.3583C34.6338 11.7736 34.5449 11.618 34.4558 11.4118Z"
          fill="white"/>
    <path d="M29.435 13.6276C29.931 13.1771 30.5482 12.857 31.1104 12.7588C31.3527 12.7164 31.7563 12.7332 31.9806 12.795C32.3402 12.894 32.6619 13.1158 32.8292 13.3799C32.9927 13.6381 33.0629 13.8631 33.1359 14.3637C33.1647 14.5612 33.1961 14.7595 33.2056 14.8044C33.2604 15.0639 33.3671 15.2712 33.4994 15.3754C33.7095 15.5408 34.0712 15.551 34.427 15.4017C34.4874 15.3763 34.5399 15.3588 34.5435 15.3628C34.5565 15.3766 34.3773 15.5056 34.2509 15.5735C34.0808 15.6649 33.9455 15.7003 33.7658 15.7003C33.4399 15.7003 33.1693 15.522 32.9435 15.1583C32.8991 15.0867 32.7992 14.8724 32.7216 14.682C32.4832 14.0971 32.3655 13.919 32.0887 13.724C31.8479 13.5544 31.5372 13.5239 31.3035 13.6472C30.9966 13.8091 30.9109 14.2311 31.1308 14.4985C31.2182 14.6048 31.3811 14.6964 31.5144 14.7142C31.7636 14.7476 31.9779 14.5436 31.9779 14.2729C31.9779 14.0971 31.9151 13.9968 31.7569 13.92C31.541 13.8152 31.3088 13.9378 31.3099 14.156C31.3104 14.2491 31.3481 14.3074 31.4348 14.3497C31.4905 14.3768 31.4917 14.3789 31.4464 14.3687C31.2482 14.3246 31.2018 14.0676 31.3611 13.897C31.5524 13.6923 31.9479 13.7826 32.0838 14.0622C32.1408 14.1796 32.1475 14.4134 32.0977 14.5546C31.9864 14.8706 31.6617 15.0368 31.3324 14.9464C31.1081 14.8847 31.0168 14.8181 30.7465 14.5186C30.2767 13.998 30.0944 13.8972 29.4171 13.7835L29.2874 13.7617L29.435 13.6276Z"
          fill="white"/>
    <path fill-rule="evenodd" clip-rule="evenodd"
          d="M27.231 4.31134C28.7998 6.35946 29.8803 7.20447 30.0004 7.383C30.0996 7.53042 30.0622 7.66294 29.8924 7.76681C29.798 7.82456 29.6038 7.88307 29.5065 7.88307C29.3966 7.88307 29.3588 7.83744 29.3588 7.83744C29.2951 7.77239 29.2592 7.78376 28.9317 7.1586C28.4772 6.39988 28.0967 5.77049 28.0864 5.75995C28.0624 5.73558 28.0628 5.7364 28.8854 7.31961C29.0183 7.64959 28.9118 7.77072 28.9118 7.81771C28.9118 7.91332 28.8876 7.96357 28.7779 8.09513C28.5951 8.31446 28.5134 8.56091 28.4545 9.07096C28.3883 9.64272 28.2024 10.0466 27.6871 10.7378C27.3855 11.1425 27.3362 11.2166 27.26 11.3797C27.1642 11.5851 27.1378 11.7001 27.1271 11.9594C27.1158 12.2337 27.1378 12.4108 27.2157 12.673C27.2839 12.9025 27.3551 13.054 27.537 13.3571C27.694 13.6187 27.7844 13.8131 27.7844 13.8892C27.7844 13.9497 27.7952 13.9498 28.0385 13.8906C28.6207 13.7492 29.0935 13.5005 29.3594 13.1956C29.524 13.0069 29.5626 12.9027 29.5639 12.6443C29.5647 12.4751 29.5592 12.4397 29.5167 12.3424C29.4475 12.184 29.3215 12.0524 29.0439 11.8483C28.6802 11.5808 28.5249 11.3655 28.482 11.0694C28.4468 10.8264 28.4876 10.655 28.6888 10.2014C28.8971 9.73183 28.9487 9.53174 28.9836 9.05847C29.0061 8.7527 29.0374 8.63211 29.119 8.53532C29.2042 8.43438 29.2809 8.4002 29.4917 8.36922C29.8354 8.31872 30.0542 8.22308 30.2341 8.04478C30.3902 7.8901 30.4555 7.74106 30.4655 7.5167L30.4731 7.34664L30.3859 7.23728C30.0701 6.84121 27.0196 4 27.0001 4C26.996 4 27.0999 4.14011 27.231 4.31134ZM27.9617 12.2697C28.0331 12.1337 27.9952 11.9589 27.8757 11.8734C27.7629 11.7927 27.5876 11.8308 27.5876 11.9359C27.5876 11.968 27.6041 11.9914 27.6413 12.012C27.7039 12.0466 27.7084 12.0856 27.6592 12.1652C27.6093 12.2459 27.6133 12.3168 27.6705 12.365C27.7628 12.4427 27.8933 12.4 27.9617 12.2697Z"
          fill="white"/>
    <path fill-rule="evenodd" clip-rule="evenodd"
          d="M30.6902 8.45837C30.5288 8.51172 30.372 8.69583 30.3234 8.88888C30.2938 9.00665 30.3106 9.21323 30.355 9.27703C30.4267 9.38007 30.496 9.40722 30.6837 9.4058C31.0511 9.40304 31.3705 9.23338 31.4076 9.02128C31.4381 8.84741 31.2978 8.60646 31.1046 8.50068C31.0048 8.44611 30.7928 8.42447 30.6902 8.45837ZM31.1197 8.81999C31.1764 8.7333 31.1516 8.63962 31.0552 8.57626C30.8717 8.45561 30.5942 8.55545 30.5942 8.74211C30.5942 8.83502 30.7389 8.93639 30.8716 8.93639C30.9599 8.93639 31.0807 8.8797 31.1197 8.81999Z"
          fill="white"/>
    <path d="M32 43C36.9856 43 41 38.9856 41 34C41 29.0144 36.9856 25 32 25C27.0144 25 23 29.0144 23 34C23 38.9856 27.0144 43 32 43Z"
          fill="#FF4339" stroke="white" stroke-width="2"/>
    <path d="M34.2 35.2666C34.2 34.1 33.5 33.7 32.1 33.5334C31.1 33.4 30.9 33.1334 30.9 32.6666C30.9 32.1999 31.2334 31.9 31.9 31.9C32.5 31.9 32.8334 32.1 33 32.6C33.0334 32.7 33.1334 32.7666 33.2334 32.7666H33.7667C33.9 32.7666 34 32.6666 34 32.5334V32.5C33.8667 31.7666 33.2667 31.2 32.5 31.1334V30.3334C32.5 30.2 32.4 30.1 32.2334 30.0667H31.7334C31.6 30.0667 31.5 30.1667 31.4667 30.3334V31.1C30.4667 31.2334 29.8334 31.9 29.8334 32.7334C29.8334 33.8334 30.5 34.2666 31.9 34.4334C32.8334 34.6 33.1334 34.8 33.1334 35.3334C33.1334 35.8667 32.6667 36.2334 32.0334 36.2334C31.1667 36.2334 30.8667 35.8666 30.7667 35.3666C30.7334 35.2334 30.6334 35.1666 30.5334 35.1666H29.9667C29.8334 35.1666 29.7334 35.2666 29.7334 35.4V35.4334C29.8667 36.2666 30.4 36.8666 31.5 37.0334V37.8334C31.5 37.9666 31.6 38.0666 31.7667 38.1H32.2667C32.4 38.1 32.5 38 32.5334 37.8334V37.0334C33.5334 36.8666 34.2 36.1666 34.2 35.2666Z"
          fill="white"/>
    <path d="M30.3002 38.7665C27.7002 37.8333 26.3668 34.9333 27.3335 32.3665C27.8335 30.9665 28.9335 29.8999 30.3002 29.3999C30.4335 29.3333 30.5002 29.2333 30.5002 29.0665V28.5999C30.5002 28.4665 30.4335 28.3665 30.3002 28.3333C30.2668 28.3333 30.2002 28.3333 30.1668 28.3665C27.0002 29.3665 25.2668 32.7333 26.2668 35.8999C26.8668 37.7665 28.3002 39.1999 30.1668 39.7999C30.3002 39.8665 30.4335 39.7999 30.4668 39.6665C30.5002 39.6333 30.5002 39.5999 30.5002 39.5333V39.0665C30.5002 38.9665 30.4002 38.8333 30.3002 38.7665ZM33.8335 28.3665C33.7002 28.2999 33.5668 28.3665 33.5335 28.4999C33.5002 28.5333 33.5002 28.5665 33.5002 28.6333V29.0999C33.5002 29.2333 33.6002 29.3665 33.7002 29.4333C36.3002 30.3665 37.6335 33.2665 36.6668 35.8333C36.1668 37.2333 35.0668 38.2999 33.7002 38.7999C33.5668 38.8665 33.5002 38.9665 33.5002 39.1333V39.5999C33.5002 39.7333 33.5668 39.8333 33.7002 39.8665C33.7335 39.8665 33.8002 39.8665 33.8335 39.8333C37.0002 38.8333 38.7335 35.4665 37.7335 32.2999C37.1335 30.3999 35.6668 28.9665 33.8335 28.3665Z"
          fill="white"/>
</svg>
